packages/kaspersky-hexa-ui-icons/src/iconsSVGs/24/IOs.svg

<svg width="24" height="24" viewBox="0 0 24 24" fill="none" xmlns="http://www.w3.org/2000/svg">
<path d="M12.0502 5.07181C11.5095 5.13918 11.1104 5.10754 11.1104 5.10754C11.1104 5.10754 10.9545 3.14205 12.0707 2.02587C13.1869 0.909704 15.1524 1.06553 15.1524 1.06553C15.1524 1.06553 15.3082 3.03102 14.192 4.14719C13.61 4.7292 12.7971 4.96536 12.1523 5.05811L12.0502 5.07181Z" fill="black"/>
<path fill-rule="evenodd" clip-rule="evenodd" d="M19.9553 9.91297C19.8163 9.99695 18.3058 10.9091 18.3226 12.7705C18.3434 15.0115 20.2554 15.7834 20.3482 15.8208C20.35 15.8216 20.3511 15.822 20.3515 15.8222C20.8161 16.0273 21.0526 16.5486 20.901 17.0333C20.9002 17.0357 20.8991 17.0395 20.8975 17.0448C20.8494 17.2028 20.4188 18.6187 19.4192 20.0796C18.9693 20.7372 18.5045 21.3883 17.9747 21.8836C17.3098 22.5052 16.5439 22.8991 15.6209 22.9162C14.9338 22.9288 14.4316 22.7755 13.9525 22.5784C13.871 22.5449 13.7908 22.5089 13.7095 22.4724C13.3489 22.3106 12.9689 22.1401 12.376 22.1401C11.7558 22.1401 11.358 22.3137 10.9799 22.4787C10.9157 22.5068 10.8521 22.5345 10.7881 22.5612C10.323 22.7545 9.84544 22.9148 9.21217 22.9397L9.21068 22.9397C8.46387 22.968 7.77936 22.6996 7.16114 22.2269C6.44592 21.6801 5.8175 20.8333 5.26545 20.036C3.40675 17.3487 2.07468 12.4313 3.982 9.11948C5.01585 7.32495 6.86994 6.19933 8.87514 6.16923C9.63849 6.15505 10.3847 6.39259 11.0524 6.65301C11.1668 6.69762 11.2768 6.74528 11.3822 6.79094C11.6609 6.91171 11.9075 7.01858 12.119 7.01858C12.323 7.01858 12.5806 6.90584 12.8826 6.77367C13.0307 6.70884 13.1895 6.63933 13.3579 6.57615C14.1329 6.28551 15.0227 6.0397 15.9299 6.12433C16.7299 6.16227 18.8755 6.46808 20.2614 8.49666C20.4151 8.72164 20.4701 8.99965 20.4139 9.26623C20.3575 9.53274 20.1947 9.76468 19.9631 9.90826C19.9614 9.90933 19.9588 9.9109 19.9553 9.91297ZM16.3261 12.7889C16.3487 15.2241 17.7715 16.5711 18.7177 17.1993C18.5213 17.6701 18.2138 18.3058 17.7715 18.9522L17.7553 18.9758C17.3957 19.5015 17.0347 20.0292 16.6112 20.4252C16.3163 20.7008 15.9935 20.9124 15.5841 20.9199C15.107 20.9287 14.7844 20.7801 14.4562 20.6289C14.3568 20.5831 14.257 20.5371 14.1521 20.4951C13.6718 20.3029 13.1324 20.1435 12.376 20.1435C11.4574 20.1435 10.8527 20.3661 10.2893 20.6043C10.2402 20.625 10.1917 20.6462 10.1433 20.6673C9.84291 20.7985 9.54572 20.9283 9.13469 20.9446C8.75345 20.9588 8.43949 20.7223 8.13809 20.4398C7.67912 20.0096 7.27811 19.4356 6.90713 18.8997C5.98589 17.5679 5.19605 15.576 5.05104 13.6049C4.96032 12.3714 5.12056 11.143 5.71204 10.116C6.3894 8.94027 7.593 8.18457 8.90685 8.16548L8.91139 8.16541C9.45305 8.15508 9.97337 8.36652 10.441 8.55656C10.5108 8.58491 10.5794 8.61278 10.6467 8.63937C11.2041 8.85949 11.7099 9.01514 12.119 9.01514C12.5181 9.01514 13.0677 8.83381 13.6971 8.58564C13.7368 8.56999 13.7771 8.554 13.8178 8.53781C14.3902 8.31032 15.0628 8.04298 15.7608 8.11374C15.7804 8.11573 15.8002 8.11716 15.8199 8.11797C16.2119 8.13426 17.1647 8.24501 17.9895 8.93374C17.2394 9.6563 16.3094 10.9281 16.3261 12.7889Z" fill="black"/>
</svg>

<svg xmlns="http://www.w3.org/2000/svg" width="24" height="24" fill="none" viewBox="0 0 24 24"><path fill="#000" d="M12.0502 5.0718c-.5407.0674-.9398.0357-.9398.0357s-.1559-1.9654.9603-3.0816 3.0817-.9604 3.0817-.9604.1558 1.9655-.9604 3.0817c-.582.582-1.3949.8182-2.0397.911z"/><path fill="#000" fill-rule="evenodd" d="M19.9553 9.913c-.139.084-1.6495.9961-1.6327 2.8575.0208 2.241 1.9328 3.0129 2.0256 3.0503l.0033.0014a.998.998 0 0 1 .5495 1.2111l-.0035.0115c-.0481.158-.4787 1.5739-1.4783 3.0348-.4499.6576-.9147 1.3087-1.4445 1.804-.6649.6216-1.4308 1.0155-2.3538 1.0326-.6871.0126-1.1893-.1407-1.6684-.3378a8 8 0 0 1-.243-.106c-.3606-.1618-.7406-.3323-1.3335-.3323-.6202 0-1.018.1736-1.3961.3386a12 12 0 0 1-.1918.0825c-.4651.1933-.9427.3536-1.576.3785h-.0014c-.7468.0283-1.4313-.2401-2.0496-.7128-.7152-.5468-1.3436-1.3936-1.8956-2.1909-1.8587-2.6873-3.1908-7.6047-1.2835-10.9165C5.0159 7.325 6.87 6.1993 8.8751 6.1692c.7634-.0141 1.5096.2234 2.1773.4838.1144.0446.2244.0923.3298.138.2787.1207.5253.2276.7368.2276.204 0 .4616-.1128.7636-.245.1481-.0648.3069-.1343.4753-.1974.775-.2907 1.6648-.5365 2.572-.4519.8.038 2.9456.3438 4.3315 2.3724a1 1 0 0 1 .1525.7695 1 1 0 0 1-.4586.6468m-3.6292 2.8759c.0226 2.4352 1.4454 3.7822 2.3916 4.4104-.1964.4708-.5039 1.1065-.9462 1.7529l-.0162.0236c-.3596.5257-.7206 1.0534-1.1441 1.4494-.2949.2756-.6177.4872-1.0271.4947-.4771.0088-.7997-.1398-1.1279-.291-.0994-.0458-.1992-.0918-.3041-.1338-.4803-.1922-1.0197-.3516-1.7761-.3516-.9186 0-1.5233.2226-2.0867.4608q-.0735.0312-.146.063c-.3004.1312-.5976.261-1.0086.2773-.3812.0142-.6952-.2223-.9966-.5048-.459-.4302-.86-1.0042-1.231-1.5401-.9212-1.3318-1.711-3.3237-1.856-5.2948-.0908-1.2335.0695-2.4619.661-3.4889.6773-1.1757 1.8809-1.9314 3.1948-1.9505h.0045c.5416-.0104 1.062.201 1.5296.391q.1047.0428.2057.0829c.5574.22 1.0632.3757 1.4723.3757.3991 0 .9487-.1813 1.5781-.4295q.0596-.0234.1207-.0478c.5724-.2275 1.245-.4948 1.943-.424a1 1 0 0 0 .0591.0042c.392.0163 1.3448.127 2.1696.8157-.7501.7226-1.6801 1.9944-1.6634 3.8552" clip-rule="evenodd"/></svg>
